src/assets/images/pwa.svg

<svg xmlns="http://www.w3.org/2000/svg" baseProfile="full" viewBox="0 0 1952 734.93">
  <path fill="#3D3D3D" d="M1436.62 603.304l56.39-142.599h162.82l-77.27-216.315L1675.2 0 1952 734.934h-204.13l-47.3-131.629h-263.95z"/>
  <path fill="#706CF5" d="M1262.47 734.935L1558.79.002h-196.45l-202.7 474.931L1015.5.003H864.499l-154.768 474.93-109.146-216.416-98.773 304.302 100.284 172.116h193.331l139.857-425.91 133.346 425.91h193.84z"/>
  <path fill="#3D3D3D" d="M186.476 482.643h121.003c36.654 0 69.293-4.091 97.917-12.273l31.293-96.408 87.459-269.446c-6.664-10.563-14.272-20.55-22.824-29.96C456.419 24.853 390.719 0 304.222 0H0v734.933h186.476v-252.29zm160.166-313.564c17.54 17.653 26.309 41.276 26.309 70.871 0 29.822-7.713 53.474-23.138 70.956-16.91 19.425-48.047 29.137-93.409 29.137h-69.928V142.598h70.442c42.277 0 72.185 8.827 89.724 26.481z"/>
</svg>

<?xml version="1.0" encoding="utf-8"?><!DOCTYPE svg PUBLIC "-//W3C//DTD SVG 1.1//EN" "http://www.w3.org/Graphics/SVG/1.1/DTD/svg11.dtd">
<svg xmlns="http://www.w3.org/2000/svg"
  xmlns:xlink="http://www.w3.org/1999/xlink" version="1.1" baseProfile="full" viewBox="0 0 1952.00 734.93" enable-background="new 0 0 1952.00 734.93" xml:space="preserve">
  <g>
    <path fill="#3D3D3D" fill-opacity="1" stroke-width="0.2" stroke-linejoin="round" d="M 1436.62,603.304L 1493.01,460.705L 1655.83,460.705L 1578.56,244.39L 1675.2,0.000528336L 1952,734.933L 1747.87,734.933L 1700.57,603.304L 1436.62,603.304 Z "/>
    <path fill="#706CF5" fill-opacity="1" stroke-width="0.2" stroke-linejoin="round" d="M 1262.47,734.935L 1558.79,0.00156593L 1362.34,0.0025425L 1159.64,474.933L 1015.5,0.00351906L 864.499,0.00351906L 709.731,474.933L 600.585,258.517L 501.812,562.819L 602.096,734.935L 795.427,734.935L 935.284,309.025L 1068.63,734.935L 1262.47,734.935 Z "/>
    <path fill="#3D3D3D" fill-opacity="1" stroke-width="0.2" stroke-linejoin="round" d="M 186.476,482.643L 307.479,482.643C 344.133,482.643 376.772,478.552 405.396,470.37L 436.689,373.962L 524.148,104.516C 517.484,93.9535 509.876,83.9667 501.324,74.5569C 456.419,24.852 390.719,0.000406265 304.222,0.000406265L -3.8147e-006,0.000406265L -3.8147e-006,734.933L 186.476,734.933L 186.476,482.643 Z M 346.642,169.079C 364.182,186.732 372.951,210.355 372.951,239.95C 372.951,269.772 365.238,293.424 349.813,310.906C 332.903,330.331 301.766,340.043 256.404,340.043L 186.476,340.043L 186.476,142.598L 256.918,142.598C 299.195,142.598 329.103,151.425 346.642,169.079 Z "/>
  </g>
</svg>
